svg/u2651.svg

<svg viewBox="0 0 128 128" xmlns="http://www.w3.org/2000/svg">
  <circle cx="64" cy="64" r="60" fill="#5E35B1"/>
  <circle cx="60.1" cy="63.1" r="56.1" fill="#7E57C2"/>
  <path d="M94.8,84.1c-1.6,0.8-3.4,1.6-6.5,1.6c-2,0-4.6-0.4-8.1-1.3 c-0.4-0.1-0.6-0.4-0.6-0.8c-0.1-8,1.8-12.1,3.6-14.2c1.8-2,3.4-3.1,6.5-3.1H90c3,0,5.3,1.3,7.5,4C103,76.8,97.1,83,94.8,84.1z" opacity="0.2" fill="#5E35B1" enable-background="new "/>
  <path d="M24,29.7c4.5-7.1,14.1-13,24.1-14.8c2.5-0.4,5-0.6,7.1,0.2 c1.6,0.6,2.9,2.1,2,3.8c-0.7,1.4-2.6,2-4.1,2.5c-9.3,3-17.9,6.4-23.1,14.3c-2,3-4.9,14.4-8.6,12.3C17.5,45.7,18.3,38.5,24,29.7z" opacity="0.65" fill="#A08CCF" enable-background="new "/>
  <path d="M103.9,65.3c-3.5-5.1-7.8-7-13.5-7c-15.6,0.1-18.5,16.1-18.7,22.5c0,0.3-0.3,0.5-0.6,0.4L70,80.7 c-2-0.7-2.8-4.8-3-7.4V44.6c0-8.7-6.8-16.1-15.5-16.4c-5-0.2-9.5,2-12.5,5.4c-1.1-1.2-2.3-2.3-3.8-3.1c-2.1-1.3-4.9-0.5-5.8,1.8 c-0.8,1.9,0,4,1.6,5c2.4,1.4,4,4,4,6.9V82c0,2.1,1.5,3.9,3.6,4.2c2.4,0.2,4.4-1.6,4.4-4V44.4c0-4.3,3.2-8,7.5-8.3 c4.7-0.3,8.5,3.4,8.5,8v30c0.3,3.8,1.6,11.6,8.2,14.1c0.2,0.1,0.5,0.2,0.9,0.3c0.8,0.3,2,0.8,3.3,1.3c0.4,0.1,0.6,0.4,0.7,0.8 s0.1,0.8,0.2,1.2c0.4,3.1-0.6,4.2-2.3,4.9c-3.1,1.4-8,1.1-12.3,0.2c-2.5-0.5-4.8,1.4-4.8,3.9l0,0c0,1.9,1.3,3.5,3.2,3.9 c1.4,0.3,2.8,0.5,4.2,0.7c1.3,0.1,2.7,0.2,4.1,0.2c3.7,0,7.8-0.6,10.9-2.8c3.2-2.2,5-5.7,5-9.9c0-0.3,0.2-0.5,0.5-0.4 C103.3,98.9,112,77.1,103.9,65.3L103.9,65.3z M94.8,84.1c-2.7,1.3-5.9,2.7-14.6,0.2c-0.4-0.1-0.6-0.4-0.6-0.8 c-0.1-8,1.8-12.1,3.6-14.2c1.8-2,3.4-3.1,6.5-3.1c3.1-0.1,5.5,1.2,7.8,3.9C103,76.7,97.1,83,94.8,84.1z" fill="#FAFAFA"/>
  <path d="M24,29.7c4.5-7.1,14.1-13,24.1-14.8c2.5-0.4,5-0.6,7.1,0.2 c1.6,0.6,2.9,2.1,2,3.8c-0.7,1.4-2.6,2-4.1,2.5c-9.3,3-17.9,6.4-23.1,14.3c-2,3-4.9,14.4-8.6,12.3C17.5,45.7,18.3,38.5,24,29.7z" opacity="0.3" fill="#A08CCF" enable-background="new "/>
</svg>

<svg viewBox="0 0 128 128" xmlns="http://www.w3.org/2000/svg">
  <defs/>
  <path d="M124,64 A60 60 0 1 1 4,64 A60 60 0 1 1 124,64 Z" fill="#5E35B1"/>
  <path d="M116.2,63.1 A56.1 56.1 0 1 1 4,63.1 A56.1 56.1 0 1 1 116.2,63.1 Z" fill="#7E57C2"/>
  <path d="M94.8,84.1 C93.2,84.9 91.4,85.7 88.3,85.7 C86.3,85.7 83.7,85.3 80.2,84.4 C79.8,84.3 79.6,84 79.6,83.6 C79.5,75.6 81.4,71.5 83.2,69.4 C85,67.4 86.6,66.3 89.7,66.3 L90,66.3 C93,66.3 95.3,67.6 97.5,70.3 C103,76.8 97.1,83 94.8,84.1 Z" fill="#5E35B1" opacity="0.2"/>
  <path d="M24,29.7 C28.5,22.6 38.1,16.7 48.1,14.9 C50.6,14.5 53.1,14.3 55.2,15.1 C56.8,15.7 58.1,17.2 57.2,18.9 C56.5,20.3 54.6,20.9 53.1,21.4 C43.8,24.4 35.2,27.8 30,35.7 C28,38.7 25.1,50.1 21.4,48 C17.5,45.7 18.3,38.5 24,29.7 Z" fill="#A08CCF" opacity="0.65"/>
  <path d="M103.9,65.3 C100.4,60.2 96.1,58.3 90.4,58.3 C74.8,58.4 71.9,74.4 71.7,80.8 C71.7,81.1 71.4,81.3 71.1,81.2 L70,80.7 C68,80 67.2,75.9 67,73.3 L67,44.6 C67,35.9 60.2,28.5 51.5,28.2 C46.5,28 42,30.2 39,33.6 C37.9,32.4 36.7,31.3 35.2,30.5 C33.1,29.2 30.3,30 29.4,32.3 C28.6,34.2 29.4,36.3 31,37.3 C33.4,38.7 35,41.3 35,44.2 L35,82 C35,84.1 36.5,85.9 38.6,86.2 C41,86.4 43,84.6 43,82.2 L43,44.4 C43,40.1 46.2,36.4 50.5,36.1 C55.2,35.8 59,39.5 59,44.1 L59,74.1 C59.3,77.9 60.6,85.7 67.2,88.2 C67.4,88.3 67.7,88.4 68.1,88.5 C68.9,88.8 70.1,89.3 71.4,89.8 C71.8,89.9 72,90.2 72.1,90.6 C72.2,91 72.2,91.4 72.3,91.8 C72.7,94.9 71.7,96 70,96.7 C66.9,98.1 62,97.8 57.7,96.9 C55.2,96.4 52.9,98.3 52.9,100.8 L52.9,100.8 C52.9,102.7 54.2,104.3 56.1,104.7 C57.5,105 58.9,105.2 60.3,105.4 C61.6,105.5 63,105.6 64.4,105.6 C68.1,105.6 72.2,105 75.3,102.8 C78.5,100.6 80.3,97.1 80.3,92.9 C80.3,92.6 80.5,92.4 80.8,92.5 C103.3,98.9 112,77.1 103.9,65.3 L103.9,65.3 Z M94.8,84.1 C92.1,85.4 88.9,86.8 80.2,84.3 C79.8,84.2 79.6,83.9 79.6,83.5 C79.5,75.5 81.4,71.4 83.2,69.3 C85,67.3 86.6,66.2 89.7,66.2 C92.8,66.1 95.2,67.4 97.5,70.1 C103,76.7 97.1,83 94.8,84.1 Z" fill="#FAFAFA"/>
  <path d="M24,29.7 C28.5,22.6 38.1,16.7 48.1,14.9 C50.6,14.5 53.1,14.3 55.2,15.1 C56.8,15.7 58.1,17.2 57.2,18.9 C56.5,20.3 54.6,20.9 53.1,21.4 C43.8,24.4 35.2,27.8 30,35.7 C28,38.7 25.1,50.1 21.4,48 C17.5,45.7 18.3,38.5 24,29.7 Z" fill="#A08CCF" opacity="0.3"/>
</svg>
